vivaldi-source/chromium/chrome/browser/resources/settings/chromeos/images/multidevice_permission_setup_connecting_dark.svg

<svg width="200" height="200" viewBox="0 0 200 200" fill="none" xmlns="http://www.w3.org/2000/svg">
<path d="M192.841 132.878H164.379C163.813 132.858 163.276 132.624 162.875 132.224C162.475 131.823 162.241 131.286 162.221 130.72V69.1586C162.221 68.5861 162.448 68.0371 162.853 67.6323C163.258 67.2274 163.807 67 164.379 67H192.841C193.408 67.0199 193.945 67.2537 194.346 67.6543C194.746 68.0549 194.98 68.5925 195 69.1586V130.64C195 131.22 194.776 131.777 194.373 132.195C193.97 132.612 193.421 132.857 192.841 132.878Z" fill="#8AB4F8" fill-opacity="0.4"/>
<path d="M192.841 132.878H164.379C163.813 132.858 163.276 132.624 162.875 132.224C162.475 131.823 162.241 131.286 162.221 130.72V69.1586C162.221 68.5861 162.448 68.0371 162.853 67.6323C163.258 67.2274 163.807 67 164.379 67H192.841C193.408 67.0199 193.945 67.2537 194.346 67.6543C194.746 68.0549 194.98 68.5925 195 69.1586V130.64C195 131.22 194.776 131.777 194.373 132.195C193.97 132.612 193.421 132.857 192.841 132.878Z" fill="#8AB4F8" fill-opacity="0.4"/>
<path d="M82.4315 68.7887L63.0038 71.7468C60.4806 72.1285 58.2123 73.4969 56.6979 75.551C55.1836 77.6051 54.5473 80.1766 54.9289 82.6998C55.3106 85.2231 56.679 87.4914 58.7331 89.0057C60.7872 90.52 63.3587 91.1564 65.882 90.7747L85.3097 87.7366C86.6019 87.604 87.8537 87.2103 88.9892 86.5794C90.1247 85.9485 91.1203 85.0936 91.9155 84.0665C92.7108 83.0394 93.2892 81.8615 93.6157 80.6042C93.9422 79.3469 94.0099 78.0364 93.8149 76.7521C93.6198 75.4679 93.1659 74.2366 92.4808 73.1329C91.7957 72.0293 90.8936 71.0763 89.8292 70.3317C88.7648 69.5871 87.5603 69.0664 86.2887 68.8011C85.017 68.5359 83.7048 68.5316 82.4315 68.7887V68.7887ZM90.9861 77.1833C91.1335 78.1132 91.095 79.0631 90.8727 79.978C90.6504 80.8928 90.2487 81.7545 89.691 82.513C89.1333 83.2715 88.4306 83.9118 87.6236 84.3967C86.8166 84.8817 85.9214 85.2017 84.9899 85.3382L65.4823 88.3762C63.5951 88.6625 61.6715 88.1873 60.1347 87.0553C58.5979 85.9233 57.5737 84.2272 57.2875 82.3401C57.0012 80.4529 57.4763 78.5294 58.6083 76.9925C59.7403 75.4557 61.4365 74.4315 63.3236 74.1453L82.8312 71.1072C84.7182 70.8328 86.6369 71.3185 88.166 72.4578C89.695 73.5971 90.7093 75.2967 90.9861 77.1833V77.1833Z" fill="#EA4335"/>
<path d="M111.853 75.9543C112.705 75.8262 113.482 75.3967 114.044 74.7438C114.607 74.0909 114.916 73.258 114.916 72.3965C114.916 71.535 114.607 70.7021 114.044 70.0493C113.482 69.3964 112.705 68.9669 111.853 68.8388C111.341 68.7618 110.818 68.7963 110.321 68.9397C109.824 69.0832 109.363 69.3323 108.971 69.67C108.578 70.0078 108.264 70.4262 108.048 70.8968C107.832 71.3673 107.72 71.8789 107.72 72.3965C107.72 72.9142 107.832 73.4258 108.048 73.8963C108.264 74.3669 108.578 74.7853 108.971 75.1231C109.363 75.4608 109.824 75.7099 110.321 75.8534C110.818 75.9968 111.341 76.0312 111.853 75.9543Z" fill="#5BB974"/>
<path d="M65.0825 80.5412L37.9797 87.8965C37.8584 87.9148 37.7448 87.9675 37.6526 88.0485C37.5604 88.1295 37.4935 88.2353 37.4598 88.3533C37.4261 88.4713 37.427 88.5965 37.4625 88.714C37.498 88.8314 37.5665 88.9362 37.6599 89.0158L57.6472 108.843C57.7366 108.913 57.8413 108.961 57.9527 108.983C58.0642 109.005 58.1792 109 58.2883 108.968C58.3975 108.937 58.4977 108.881 58.5808 108.803C58.6639 108.726 58.7276 108.63 58.7665 108.523L65.9619 81.3407C65.9781 81.2247 65.9658 81.1065 65.926 80.9964C65.8861 80.8863 65.82 80.7875 65.7333 80.7087C65.6467 80.6299 65.5421 80.5735 65.4287 80.5443C65.3153 80.5151 65.1964 80.5141 65.0825 80.5412V80.5412Z" fill="#FBBC04"/>
<path d="M162.221 92.184C159.493 92.3074 156.825 91.3607 154.786 89.5457L152.067 87.1473L150.868 86.1879L149.909 85.6282C148.871 85.0934 147.738 84.7704 146.574 84.6782C145.411 84.5859 144.24 84.7262 143.132 85.0908C142.023 85.4554 140.998 86.0371 140.116 86.802C139.234 87.5668 138.514 88.4995 137.996 89.5457C136.959 91.6489 136.789 94.0748 137.522 96.3022C138.254 98.5296 139.831 100.381 141.914 101.458L142.953 101.858H143.033L144.472 102.258L147.99 102.977C150.703 103.591 153.078 105.222 154.626 107.534L156.385 110.173C156.871 111.028 157.404 111.856 157.983 112.651C159.165 113.993 160.606 115.081 162.221 115.849" fill="#8AB4F8" fill-opacity="0.4"/>
<path d="M162.221 115.929L163.1 116.329C166.132 117.459 169.481 117.391 172.465 116.138C175.448 114.885 177.842 112.541 179.157 109.585C180.472 106.628 180.61 103.281 179.543 100.226C178.476 97.171 176.284 94.6381 173.414 93.1434C170.953 91.9657 168.189 91.5749 165.499 92.0241L162.381 92.184H162.221" fill="#669DF6"/>
<path d="M137.676 75.4746C135.083 75.4746 132.548 76.2436 130.392 77.6843C128.236 79.1251 126.555 81.1728 125.563 83.5687C124.57 85.9645 124.311 88.6008 124.817 91.1442C125.323 93.6877 126.571 96.0239 128.405 97.8576C130.239 99.6913 132.575 100.94 135.118 101.446C137.662 101.952 140.298 101.692 142.694 100.7C145.09 99.7075 147.138 98.0269 148.578 95.8707C150.019 93.7145 150.788 91.1795 150.788 88.5863C150.788 86.8644 150.449 85.1594 149.79 83.5687C149.131 81.9779 148.165 80.5325 146.948 79.3149C145.73 78.0974 144.285 77.1316 142.694 76.4727C141.103 75.8138 139.398 75.4746 137.676 75.4746V75.4746ZM137.676 77.8731C139.795 77.8731 141.867 78.5014 143.628 79.6786C145.39 80.8558 146.763 82.5289 147.574 84.4865C148.385 86.4441 148.597 88.5982 148.184 90.6763C147.77 92.7545 146.75 94.6634 145.252 96.1617C143.753 97.6599 141.845 98.6803 139.766 99.0936C137.688 99.507 135.534 99.2948 133.577 98.484C131.619 97.6731 129.946 96.3 128.769 94.5382C127.591 92.7764 126.963 90.7051 126.963 88.5863C126.963 85.745 128.092 83.02 130.101 81.0109C132.11 79.0018 134.835 77.8731 137.676 77.8731Z" fill="#669DF6"/>
<path d="M182.608 70.1979C182.699 70.1972 182.789 70.216 182.873 70.253C182.956 70.29 183.03 70.3444 183.091 70.4126C183.151 70.4807 183.197 70.561 183.224 70.6481C183.251 70.7352 183.259 70.827 183.247 70.9174C183.249 71.0741 183.192 71.2257 183.089 71.3436C182.986 71.4615 182.843 71.5375 182.688 71.557H176.372C176.208 71.5397 176.055 71.4667 175.939 71.3503C175.823 71.2339 175.75 71.0811 175.732 70.9174C175.741 70.7548 175.799 70.5987 175.899 70.4701C175.999 70.3415 176.136 70.2465 176.292 70.1979H182.608Z" fill="#669DF6"/>
<path d="M172.934 71.7169C173.146 71.7169 173.349 71.6327 173.499 71.4828C173.649 71.3328 173.733 71.1295 173.733 70.9174C173.746 70.8094 173.734 70.6998 173.699 70.5969C173.663 70.4941 173.605 70.4006 173.528 70.3237C173.451 70.2467 173.357 70.1882 173.255 70.1526C173.152 70.1169 173.042 70.1051 172.934 70.118C172.722 70.118 172.519 70.2022 172.369 70.3521C172.219 70.5021 172.134 70.7054 172.134 70.9174C172.153 71.1234 172.243 71.3165 172.389 71.4627C172.535 71.6089 172.728 71.6989 172.934 71.7169V71.7169Z" fill="#669DF6"/>
<path fill-rule="evenodd" clip-rule="evenodd" d="M147.67 84.8286C148.454 84.9747 149.21 85.2445 149.909 85.6281L150.468 85.9479C150.693 86.809 150.8 87.6964 150.788 88.5862C150.786 91.4061 149.875 94.1503 148.19 96.4114C146.505 98.6725 144.136 100.33 141.434 101.138C140.559 100.633 139.776 99.9842 139.116 99.2195C141.68 98.8549 144.028 97.5802 145.731 95.6281C147.433 93.6759 148.377 91.1765 148.39 88.5862C148.39 87.2994 148.146 86.0242 147.67 84.8286V84.8286Z" fill="#323336"/>
<path fill-rule="evenodd" clip-rule="evenodd" d="M57.1675 82.6998C57.4874 84.3126 58.3385 85.7716 59.5848 86.844C60.8311 87.9164 62.4007 88.5403 64.0431 88.6161L63.4835 90.6148C61.5081 90.4211 59.6455 89.604 58.1651 88.2817C56.6847 86.9595 55.6634 85.2006 55.2487 83.2595L57.1675 82.6998Z" fill="#323336"/>
<path d="M15.1142 98.9295C18.2762 97.8175 21.743 97.9508 24.8102 99.3025C27.8775 100.654 30.3152 103.123 31.6281 106.207C32.9411 109.291 33.0309 112.759 31.8793 115.906C30.7276 119.054 28.4209 121.646 25.4277 123.154C24.5942 123.627 23.7089 124.003 22.7894 124.273" fill="#F882FE"/>
<path d="M8.95813 76.064L24.868 130.19L79.7132 129.47V132.588L23.6688 133.308C23.3502 133.307 23.0399 133.207 22.7816 133.02C22.5234 132.834 22.3303 132.571 22.2297 132.268L6 76.9434L8.95813 76.064Z" fill="#669DF6"/>
</svg>

<svg width="200" height="200" viewBox="0 0 200 200" fill="none" xmlns="http://www.w3.org/2000/svg"><path d="M192.841 132.878h-28.462a2.242 2.242 0 0 1-2.158-2.158V69.159A2.157 2.157 0 0 1 164.379 67h28.462A2.24 2.24 0 0 1 195 69.159v61.481a2.239 2.239 0 0 1-2.159 2.238Z" fill="#8AB4F8" fill-opacity=".4"/><path d="M192.841 132.878h-28.462a2.242 2.242 0 0 1-2.158-2.158V69.159A2.157 2.157 0 0 1 164.379 67h28.462A2.24 2.24 0 0 1 195 69.159v61.481a2.239 2.239 0 0 1-2.159 2.238Z" fill="#8AB4F8" fill-opacity=".4"/><path d="m82.431 68.789-19.427 2.958a9.623 9.623 0 0 0 2.878 19.028l19.428-3.038a9.592 9.592 0 0 0 7.17-14.604 9.594 9.594 0 0 0-10.049-4.344Zm8.555 8.394a7.117 7.117 0 0 1-5.996 8.155l-19.508 3.038a7.197 7.197 0 1 1-2.158-14.23l19.507-3.039a7.196 7.196 0 0 1 8.155 6.076Z" fill="#EA4335"/><path d="M111.853 75.954a3.596 3.596 0 0 0 3.063-3.557 3.596 3.596 0 0 0-6.868-1.5 3.595 3.595 0 0 0 2.273 4.956 3.6 3.6 0 0 0 1.532.101Z" fill="#5BB974"/><path d="M65.082 80.541 37.98 87.897a.64.64 0 0 0-.32 1.119l19.987 19.827a.723.723 0 0 0 .641.125.71.71 0 0 0 .479-.445l7.195-27.182a.72.72 0 0 0-.88-.8Z" fill="#FBBC04"/><path d="M162.221 92.184a10.47 10.47 0 0 1-7.435-2.638l-2.719-2.399-1.199-.96-.959-.559a8.796 8.796 0 0 0-11.913 3.918 8.95 8.95 0 0 0-.474 6.756 8.95 8.95 0 0 0 4.392 5.156l1.039.4h.08l1.439.4 3.518.719a10.876 10.876 0 0 1 6.636 4.557l1.759 2.639a26.206 26.206 0 0 0 1.598 2.478 13.203 13.203 0 0 0 4.238 3.198" fill="#8AB4F8" fill-opacity=".4"/><path d="m162.221 115.929.879.4a12.717 12.717 0 0 0 16.057-6.744 12.715 12.715 0 0 0-5.743-16.442 13.273 13.273 0 0 0-7.915-1.119l-3.118.16h-.16M137.676 75.475a13.11 13.11 0 1 0 0 26.22 13.11 13.11 0 0 0 0-26.22Zm0 2.398a10.711 10.711 0 0 1 10.508 12.803 10.72 10.72 0 0 1-8.418 8.418 10.71 10.71 0 0 1-10.997-4.556 10.707 10.707 0 0 1 1.332-13.527 10.713 10.713 0 0 1 7.575-3.138ZM182.608 70.198a.644.644 0 0 1 .616.45.63.63 0 0 1 .023.27.636.636 0 0 1-.559.639h-6.316a.718.718 0 0 1-.64-.64.8.8 0 0 1 .56-.72h6.316ZM172.934 71.717a.799.799 0 0 0 .799-.8.726.726 0 0 0-.205-.593.725.725 0 0 0-.594-.206.799.799 0 0 0-.8.8.878.878 0 0 0 .8.8v-.001Z" fill="#669DF6"/><path fill-rule="evenodd" clip-rule="evenodd" d="M147.67 84.829c.784.146 1.54.416 2.239.8l.559.319c.225.861.332 1.748.32 2.638a13.111 13.111 0 0 1-9.354 12.552 9.015 9.015 0 0 1-2.318-1.919 10.796 10.796 0 0 0 9.274-10.633c0-1.287-.244-2.562-.72-3.757ZM57.167 82.7a7.355 7.355 0 0 0 6.876 5.916l-.56 1.999a9.354 9.354 0 0 1-8.234-7.355l1.918-.56Z" fill="#323336"/><path d="M15.114 98.93a13.191 13.191 0 0 1 10.314 24.224c-.834.473-1.72.849-2.639 1.119" fill="#F882FE"/><path d="m8.958 76.064 15.91 54.126 54.845-.72v3.118l-56.044.72a1.52 1.52 0 0 1-1.44-1.04L6 76.943l2.958-.879Z" fill="#669DF6"/></svg>
